X: 2
T: Paddy McFadden's
M: 12/8
L: 1/8
R: slide
K: Ador
|: g |\
e2 A ABA e3 g2 f | e2 A ABA G3 B2 d |
e2 A ABA e2 f g2 f | efe d2 B B2 A A2 :|
|: d |\
e2 a a2 g e2 f g3 | e2 a a2 g e2 d B2 d |
e2 a a2 g e2 f g2 f | efe d2 B B2 A A2 :|
